svgs/vlc.svg

<svg width="192" height="192" viewBox="0 0 192 192" fill="none" xmlns="http://www.w3.org/2000/svg"><path d="M57.5 122H46a8 8 0 0 0-7.68 5.76l-9.333 32c-1.494 5.12 2.346 10.24 7.68 10.24h118.666c5.334 0 9.174-5.12 7.68-10.24l-9.333-32A8 8 0 0 0 146 122h-9.5" stroke="#000" stroke-width="12" stroke-linecap="round" stroke-linejoin="round"/><path d="M103.651 25.039c-2.307-7.55-12.995-7.55-15.302 0L55.672 131.982c-.886 2.9.18 6.071 2.778 7.633C69.421 146.208 82.268 150 96 150c13.732 0 26.579-3.792 37.55-10.385 2.599-1.562 3.664-4.733 2.778-7.633L103.651 25.039Z" stroke="#000" stroke-width="12" stroke-linecap="round" stroke-linejoin="round"/><path fill-rule="evenodd" clip-rule="evenodd" d="m66.753 97.066-3.73 11.533C73.024 113.346 84.21 116 96 116c11.564 0 22.545-2.553 32.398-7.129l-3.313-11.724C116.339 101.531 106.465 104 96 104c-10.53 0-20.461-2.5-29.247-6.934Zm8.804-27.222A36.86 36.86 0 0 0 96 76a36.857 36.857 0 0 0 21.219-6.686l-3.564-12.612a25.13 25.13 0 0 1-5.452 4.124A24.858 24.858 0 0 1 96 64a24.86 24.86 0 0 1-12.203-3.174 25.098 25.098 0 0 1-4.33-3.072l-3.91 12.09Z" fill="#000"/></svg>

<svg id="vector" xmlns="http://www.w3.org/2000/svg" width="192" height="192" viewBox="0 0 192 192"><path fill="#00000000" d="M57.5,122H46C42.44,122 39.32,124.35 38.32,127.76L28.99,159.76C27.49,164.88 31.33,170 36.67,170H155.33C160.67,170 164.51,164.88 163.01,159.76L153.68,127.76C152.68,124.35 149.56,122 146,122H136.5" stroke-linejoin="round" stroke-width="12" stroke="#000000" stroke-linecap="round" id="path_0"/><path fill="#00000000" d="M103.65,25.04C101.34,17.49 90.66,17.49 88.35,25.04L55.67,131.98C54.79,134.88 55.85,138.05 58.45,139.62C69.42,146.21 82.27,150 96,150C109.73,150 122.58,146.21 133.55,139.62C136.15,138.05 137.21,134.88 136.33,131.98L103.65,25.04Z" stroke-linejoin="round" stroke-width="12" stroke="#000000" stroke-linecap="round" id="path_1"/><path fill="#000000" d="M66.75,97.07L63.02,108.6C73.02,113.35 84.21,116 96,116C107.56,116 118.54,113.45 128.4,108.87L125.08,97.15C116.34,101.53 106.46,104 96,104C85.47,104 75.54,101.5 66.75,97.07ZM75.56,69.84C76.33,70.36 77.12,70.84 77.93,71.29C83.28,74.29 89.45,76 96,76C102.55,76 108.72,74.29 114.07,71.29C115.15,70.69 116.21,70.02 117.22,69.31L113.65,56.7C112.04,58.31 110.21,59.7 108.2,60.83C104.6,62.85 100.44,64 96,64C91.56,64 87.4,62.85 83.8,60.83C82.24,59.95 80.79,58.92 79.47,57.75L75.56,69.84Z" fill-rule="evenodd" id="path_2"/></svg>
